X: 28537
T: Munster, The
R: jig
M: 6/8
K: Gmajor
DE|GFG AGA|Bde gdB|GAB cBA|BGE EDE|
GFG AGA|Bde gdB|cBA B/c/dB|AGG G:|
|:Bd|g3 efg|eag fed|gfg efg|a2 f def|
gfe agf|gfe fdB|cBA B/c/dB|AGG G:|

